static/img/general/features-icon-7.svg

<svg width="27" height="47" viewBox="0 0 27 47" fill="none" xmlns="http://www.w3.org/2000/svg">
<path d="M14.1752 21.5624C14.515 21.7226 14.9105 21.7225 15.2502 21.5611C20.0968 19.2614 25.5693 14.7191 26.3937 8.8677C26.4445 8.50717 26.1934 8.17381 25.8329 8.12301C25.4734 8.07264 25.139 8.32322 25.0882 8.68383C24.3383 14.0067 19.2414 18.2011 14.7111 20.3576C13.9307 19.988 13.1624 19.574 12.4224 19.1243C12.4224 15.3064 12.4225 16.1848 12.4217 14.779V14.7789C12.4207 13.4579 11.3454 12.3834 10.0237 12.3834C10.0233 12.3834 10.0227 12.3834 10.0223 12.3834C8.70311 12.3845 7.63075 13.4608 7.63172 14.7821V15.2339C5.88534 13.3015 4.20953 10.5809 4.2061 7.25438C4.2032 4.31638 6.78991 1.97744 9.77634 2.37919C12.4029 2.73312 13.356 4.81059 13.4943 4.95455C14.4101 5.9101 15.5237 5.57585 16.023 4.77324C18.5235 0.755412 23.8912 2.03729 24.9976 5.88224C25.0982 6.23204 25.4636 6.43437 25.8134 6.33338C26.1632 6.23266 26.3651 5.86747 26.2645 5.51767C24.8325 0.539466 17.9817 -0.868891 14.904 4.07635C14.8984 4.08549 14.8932 4.09376 14.8887 4.10114C14.7452 4.25249 14.6791 4.26031 14.4968 4.09191C12.4348 0.582532 7.6065 -0.0518618 4.71227 2.84641C3.53427 4.02599 2.88643 5.59176 2.88801 7.25561C2.89161 10.745 4.5313 14.1514 7.63198 17.1231V29.9093L5.51954 27.1363C3.61996 24.4931 0.0616295 26.8312 1.23075 29.3845L4.65329 37.2169C4.65496 37.2207 4.65672 37.2245 4.65839 37.2283C5.3035 38.6252 6.21897 39.3928 7.15843 40.3232C7.67839 40.8383 7.66732 42.1684 7.65097 42.9057C7.63313 43.7149 7.61089 44.7222 8.27253 45.3984C8.66268 45.7972 9.22017 45.9995 9.92953 45.9995H12.2187C12.5828 45.9995 12.8779 45.7044 12.8779 45.3403C12.8779 44.9762 12.5828 44.6811 12.2187 44.6811H9.92962C9.58834 44.6811 9.34787 44.6123 9.21507 44.4765C8.88715 44.1413 8.97337 43.2074 8.97477 42.5735C8.97495 42.5657 8.97504 42.5579 8.97495 42.55C8.96528 41.4357 8.88776 40.1804 8.08629 39.3865C7.12916 38.4385 6.43263 37.8737 5.85774 36.6807L2.43634 28.8511C2.43458 28.847 2.43274 28.843 2.43089 28.839C1.91585 27.7217 3.47969 26.5486 4.45299 27.9112C4.45694 27.9167 4.4609 27.9221 4.46503 27.9275L7.76672 32.2619C8.14781 32.762 8.95025 32.4916 8.95025 31.8624C8.95025 31.2434 8.95025 15.2985 8.95025 14.7814C8.94981 14.1864 9.43128 13.7021 10.0234 13.7016C10.0237 13.7016 10.0238 13.7016 10.024 13.7016C10.6157 13.7016 11.103 14.1816 11.1035 14.7798C11.1042 27.4366 11.1042 25.8092 11.1042 29.6207C11.1042 29.9849 11.3993 30.2799 11.7634 30.2799C12.1274 30.2799 12.4225 29.9849 12.4225 29.6207V27.2541C12.4573 27.1312 12.448 27.2143 12.448 25.3903C12.448 24.7964 12.9312 24.3133 13.525 24.3133C14.1188 24.3133 14.602 24.7964 14.602 25.3903C14.602 27.7482 14.602 27.6555 14.602 29.6207C14.602 29.9849 14.897 30.2799 15.2611 30.2799C15.6253 30.2799 15.9203 29.9849 15.9203 29.6207V25.8586C15.9203 25.2647 16.4035 24.7816 16.9973 24.7816C17.5911 24.7816 18.0742 25.2647 18.0742 25.8586C18.0742 26.2626 18.0742 29.2083 18.0742 29.6207C18.0742 29.9849 18.3693 30.2799 18.7334 30.2799C19.0976 30.2799 19.3926 29.9849 19.3926 29.6207V26.2098C19.3926 25.6159 19.8757 25.1328 20.4696 25.1328C21.0634 25.1328 21.5465 25.6159 21.5465 26.2098V36.255C21.5479 37.6394 21.0093 38.1966 20.3858 38.8417C18.8631 40.4172 19.0583 40.9299 19.0583 43.647C19.0583 44.2996 18.8364 44.6109 18.3181 44.6811H15.2952C14.931 44.6811 14.636 44.9762 14.636 45.3403C14.636 45.7044 14.931 45.9995 15.2952 45.9995C18.5634 45.9995 18.3756 46.0019 18.4324 45.9953C19.6498 45.8578 20.3765 44.9799 20.3765 43.6467L20.3756 41.6734C20.375 40.7498 20.7771 40.3337 21.3337 39.7579C22.0167 39.0512 22.8666 38.1717 22.8648 36.2544V26.2099C22.8648 24.163 20.4454 23.0562 18.8985 24.4031C18.0662 23.3185 16.518 23.154 15.4795 24.0069C14.7743 23.0135 13.4639 22.7219 12.4228 23.2641V20.6529C12.9959 20.9781 13.5822 21.2824 14.1752 21.5624Z" fill="#E20E17" stroke="#E20E17" stroke-width="0.4"/>
</svg>

<svg width="27" height="47" viewBox="0 0 27 47" fill="none" xmlns="http://www.w3.org/2000/svg"><path d="M14.175 21.562c.34.16.736.16 1.075 0 4.847-2.3 10.32-6.843 11.144-12.694a.66.66 0 1 0-1.306-.184c-.75 5.323-5.847 9.517-10.377 11.674a25.14 25.14 0 0 1-2.289-1.234V14.78a2.4 2.4 0 0 0-2.398-2.396h-.002a2.398 2.398 0 0 0-2.39 2.4v.45c-1.747-1.931-3.422-4.652-3.426-7.979-.003-2.938 2.584-5.277 5.57-4.875 2.627.354 3.58 2.432 3.718 2.576.916.955 2.03.62 2.529-.182 2.5-4.018 7.868-2.736 8.975 1.11a.659.659 0 1 0 1.267-.365C24.832.539 17.982-.87 14.904 4.076l-.015.025c-.144.151-.21.16-.392-.01C12.435.584 7.607-.051 4.712 2.847a6.191 6.191 0 0 0-1.824 4.41c.004 3.489 1.643 6.895 4.744 9.867V29.91L5.52 27.136c-1.9-2.643-5.458-.305-4.29 2.248l3.423 7.833.005.011c.645 1.397 1.561 2.165 2.5 3.095.52.515.51 1.845.493 2.583-.018.809-.04 1.816.622 2.492.39.4.947.601 1.657.601h2.289a.66.66 0 1 0 0-1.318h-2.29c-.34 0-.581-.069-.714-.204-.328-.336-.242-1.27-.24-1.903a.68.68 0 0 0 0-.024c-.01-1.114-.087-2.37-.889-3.163-.957-.949-1.653-1.513-2.228-2.706l-3.422-7.83a.477.477 0 0 0-.005-.012c-.515-1.117 1.049-2.29 2.022-.928a.67.67 0 0 0 .012.016l3.302 4.335c.38.5 1.183.23 1.183-.4v-17.08c0-.596.481-1.08 1.073-1.08h.001c.592 0 1.079.48 1.08 1.078v14.84a.66.66 0 1 0 1.319 0v-2.366c.034-.123.025-.04.025-1.864a1.078 1.078 0 0 1 2.154 0v4.23a.659.659 0 1 0 1.318 0v-3.76a1.078 1.078 0 0 1 2.154 0v3.762a.66.66 0 1 0 1.319 0V26.21a1.078 1.078 0 0 1 2.154 0v10.045c0 1.384-.538 1.942-1.161 2.587-1.523 1.575-1.328 2.088-1.328 4.805 0 .653-.222.964-.74 1.034h-3.023a.66.66 0 1 0 0 1.319c3.268 0 3.08.002 3.137-.005 1.218-.137 1.945-1.015 1.945-2.348l-.001-1.974c-.001-.923.401-1.34.958-1.915.683-.707 1.533-1.586 1.53-3.504V26.21c0-2.047-2.419-3.154-3.966-1.807a2.392 2.392 0 0 0-3.418-.396 2.393 2.393 0 0 0-3.057-.743v-2.611c.573.325 1.16.63 1.752.91z" fill="#E20E17" stroke="#E20E17" stroke-width=".4"/></svg>
